!!!COM:	la Rue, Pierre de
!!!CDT:	~1452///-1518/11/20
!!!OPR:	Missa Inviolata
!!!ONM:	1
!!!OTL:	Kyrie
!!!AGN:	Mass; Kyrie
!!!SCT:	Rue1017a
!!!SCA:	Rue1017a
!!!voices-OPR:	4
!!!voices:	4
**kern	**kern	**kern	**kern
*Ivox	*Ivox	*Ivox	*Ivox
*I"Bassus	*I"Tenor	*I"Contra	*I"Discantus
*I'B	*I'T	*I'C	*I'D
*staff4	*staff3	*staff2	*staff1
*>[A,B,C]	*>[A,B,C]	*>[A,B,C]	*>[A,B,C]
*>A	*>A	*>A	*>A
*clefF4	*clefGv2	*clefG2	*clefG2
*k[]	*k[]	*k[]	*k[]
*M2/1	*M2/1	*M2/1	*M2/1
*met(C)	*met(C)	*met(C)	*met(C)
=1-	=1-	=1-	=1-
!!section: Kyrie I
!!!OMD: Kyrie I
0c	1r	1.g	0cc
.	1c	.	.
.	.	2g/	.
=2	=2	=2	=2
0A	2c\	1a	1cc
.	1e	.	.
.	.	1a	1cc
.	4d\	.	.
.	4c\	.	.
=3	=3	=3	=3
0G	2g\	1.b	1.dd
.	4f\	.	.
.	4e\	.	.
.	1d	.	.
.	.	4cc\	4ee\
.	.	4b\	4dd\
=4	=4	=4	=4
1C	0c	2cc\	0ee
.	.	4b\	.
.	.	4a/	.
2r	.	2.g/	.
2c\	.	.	.
.	.	4a/	.
=5	=5	=5	=5
2B\	1.f	2b\	0r
1A	.	1cc	.
4G\	[2e\	4b\	.
4F\	.	4a/	.
=6	=6	=6	=6
1E	2e\]	1g	1r
.	2c\	.	.
1D	2.d\	2r	[1ff
.	.	[2a/	.
.	4c\	.	.
=7	=7	=7	=7
1r	1A	2a/]	2ff\]
.	.	2a/	1ee
1A	2r	2e/	.
.	2e\	2a/	2cc\
=8	=8	=8	=8
2.B-\	2d\	2.f/	2.dd\
.	2.f\	.	.
4A\	.	4g/	4cc\
2F\	.	1a	2a/
.	4e\	.	.
2A\	2c\	.	2ee\
=9	=9	=9	=9
2.B-i\	2.d\	2.f/	2dd\
.	.	.	2.ff\
4A\	4c\	4g/	.
2.F\	1A	1a	.
.	.	.	4ee\
.	.	.	[2dd\
4G\	.	.	.
=10	=10	=10	=10
2A\	2r	2r	2dd\]
4r	2e\	2a/	2cc\
4A\	.	.	.
2.B-i\	2d\	2.f/	2.dd\
.	[2f\	.	.
4A\	.	4g/	4cc\
=11	=11	=11	=11
2F\	4f\]	2a/	4a/
.	4e\	.	4b\
2G\	1d	1g	4cc\
.	.	.	4dd\
1E	.	.	1ee
.	2c#i\	2e/	.
=12	=12	=12	=12
0D	[0d	0f	2r
.	.	.	2a/
.	.	.	2b\
.	.	.	[2dd\
=13	=13	=13	=13
2r	1d]	1f	4dd\]
.	.	.	8cc\L
.	.	.	8b\J
2D\	.	.	2a/
2E\	1r	1g	2g/
[2G\	.	.	[2gg\
=14	=14	=14	=14
4G\]	2r	2e/	2gg\]
4F\	.	.	.
2D\	2d\	2f/	2ff\
1C	2e\	1g	2ee\
.	[2g\	.	4dd\
.	.	.	4cc\
=15	=15	=15	=15
2r	4g\]	1G	1b
.	4f\	.	.
2.G\	2d\	.	.
.	2e\	1r	2r
4F\	.	.	.
2E\	2c\	.	2ee\
=16	=16	=16	=16
1D	2d\	1r	2ff\
.	2B\	.	2dd\
2C/	2c\	[1g	2ee\
[2G\	2d\	.	4dd\
.	.	.	4cc\
=17	=17	=17	=17
4G\]	2G/	1g]	2b\
4F\	.	.	.
2E\	2c\	.	4r
.	.	.	4ee\
1D	2d\	1f	2ff\
.	2B\	.	2dd\
=18	=18	=18	=18
2C/	2c\	2r	2ee\
2.G\	2d\	2.g/	4dd\
.	.	.	4cc\
.	2G/	.	1b
4A\	.	4f/	.
4B\	4r	2e/	.
4c\	4e\	.	.
=19	=19	=19	=19
2d\	2f\	1d	0r
2B\	2d\	.	.
2c\	2e\	1c	.
4B\	4d\	.	.
4A\	4c\	.	.
=20	=20	=20	=20
2G\	2B\	1g	2r
1c	2c\	.	2ee\
.	1d	1r	2ff\
2B\	.	.	2dd\
=21	=21	=21	=21
2.c\	1c	2g/	2ee\
.	.	2.g/	4dd\
4B\	.	.	4cc\
2G\	2r	.	2b\
.	.	4f/	.
2A\	2e\	2e/	4r
.	.	.	4cc\
=22	=22	=22	=22
2D\	2f\	1d	2dd\
2G\	2d\	.	2b\
2C/	2e\	2g/	2cc\
[2G\	4d\	[2g/	4b\
.	4c\	.	4a/
=23	=23	=23	=23
2G\]	2B\	4g/]	2g/
.	.	4f/	.
2A\	2c\	2f/	1cc
1G	1d	1g	.
.	.	.	2b\
=24	=24	=24	=24
0Cl	0cl	0gl	0ccl
!!LO:LB:i:g=z
=25||	=25||	=25||	=25||
*>B	*>B	*>B	*>B
*clefF4	*clefGv2	*clefG2	*clefG2
*k[]	*k[]	*k[]	*k[]
*M2/1	*M2/1	*M2/1	*M2/1
*met(C)	*met(C)	*met(C)	*met(C)
!!section: Christe
!!!OMD: Christe
0r	0r	0c	0r
=26	=26	=26	=26
0r	0r	1e	1r
.	.	1f	[1cc
=27	=27	=27	=27
0r	0r	1e	1cc]
.	.	2r	1ee
.	.	2e/	.
=28	=28	=28	=28
0r	0r	4d/	1ff
.	.	4c/	.
.	.	4d/	.
.	.	4B/	.
.	.	2c/	1ee
.	.	[2g/	.
=29	=29	=29	=29
0r	0r	2g/]	2r
.	.	2e/	2ee\
.	.	2f/	4dd\
.	.	.	4cc\
.	.	2d/	4dd\
.	.	.	4b\
=30	=30	=30	=30
0r	0r	2.e/	2cc\
.	.	.	1gg
.	.	4f/	.
.	.	2g/	.
.	.	[2a/	2ee\
=31	=31	=31	=31
0r	0r	2a/]	2ff\
.	.	2f/	2dd\
.	.	2g/	[1ee
.	.	4c/	.
.	.	4d/	.
=32	=32	=32	=32
0r	0c	2e/	2ee\]
.	.	2f/	2cc\
.	.	[1g	2ee\
.	.	.	2ff\
=33	=33	=33	=33
0r	1e	1g]	2gg\
.	.	.	1ee
.	1f	1a	.
.	.	.	2dd\
=34	=34	=34	=34
1r	1e	2r	0ee
.	.	2.g/	.
1E	2c\	.	.
.	.	4f/	.
.	[2e\	4e/	.
.	.	4d/	.
=35	=35	=35	=35
1E	2e\]	2c/	0r
.	2g\	2.B/	.
1D	1f	.	.
.	.	4c/	.
.	.	4d/	.
.	.	4B/	.
=36	=36	=36	=36
1.C	0e	2c/	1r
.	.	2g/	.
.	.	2e/	1ee
[2E\	.	[2g/	.
=37	=37	=37	=37
2E\]	0r	4g/]	4ee\
.	.	4f/	4dd\
2G\	.	1e	4cc\
.	.	.	4b\
1F	.	.	1a
.	.	2d/	.
=38	=38	=38	=38
0E	1r	0e	2.g/
.	.	.	4a/
.	1g	.	2b\
.	.	.	2cc\
=39	=39	=39	=39
0r	1g	0r	2dd\
.	.	.	1ee
.	1f	.	.
.	.	.	2dd\
=40	=40	=40	=40
1r	2.e\	0r	1ee
.	4d\	.	.
1E	4c\	.	1gg
.	4B\	.	.
.	2c\	.	.
=41	=41	=41	=41
1E	2G/	0r	1gg
.	1c	.	.
1D	.	.	1ff
.	2B\	.	.
=42	=42	=42	=42
1C	1c	1r	1ee
2.G\	1r	1g	2dd\
.	.	.	[2ee\
4A\	.	.	.
=43	=43	=43	=43
2B\	0r	1g	2ee\]
1c	.	.	4dd\
.	.	.	4cc\
.	.	1f	1dd
2B\	.	.	.
=44	=44	=44	=44
1c	1r	2e/	2r
.	.	1g	2g/
1A	1c	.	2a/
.	.	2f/	[2cc\
=45	=45	=45	=45
[0G	1.d	[0g	2cc\]
.	.	.	4b\
.	.	.	4a/
.	.	.	[1b
.	[2e\	.	.
=46	=46	=46	=46
0G]	2e\]	0g]	1b]
.	4d\	.	.
.	4c\	.	.
.	1d	.	1b
=47	=47	=47	=47
2r	1c	1e	1ee
2c\	.	.	.
2B\	[1g	2r	2dd\
[2c\	.	2c/	[2ee\
=48	=48	=48	=48
2c\]	1g]	2e/	2ee\]
4B\	.	2f/	4dd\
4A\	.	.	4cc\
2G\	1g	1g	2b\
4F\	.	.	[2dd\
4E\	.	.	.
=49	=49	=49	=49
2D\	1f	1a	2dd\]
2F\	.	.	1cc
1G	1d	[1g	.
.	.	.	2b\
=50	=50	=50	=50
2C/	1e	1g]	1cc
2c\	.	.	.
2B\	2d\	2r	[1gg
[2c\	[2e\	2c/	.
=51	=51	=51	=51
2c\]	2e\]	2e/	1gg]
4B\	4d\	2f/	.
4A\	4c\	.	.
2G\	2B\	1g	1gg
4F\	[2d\	.	.
4E\	.	.	.
=52	=52	=52	=52
1D	2d\]	1a	1ff
.	1c	.	.
1G	.	1g	1dd
.	2B\	.	.
=53	=53	=53	=53
[0Cl	[0cl	2r	[0eel
.	.	2g/	.
.	.	2a/	.
.	.	[2cc\	.
=54	=54	=54	=54
0C_	0c_	2cc\]	0ee_
.	.	2b\	.
.	.	1a	.
=55	=55	=55	=55
0C]	0c]	0gl	0ee]
!!LO:LB:i:g=z
=56||	=56||	=56||	=56||
*>C	*>C	*>C	*>C
*clefF4	*clefGv2	*clefG2	*clefG2
*k[]	*k[]	*k[]	*k[]
*M2/1	*M2/1	*M2/1	*M2/1
*met(C)	*met(C)	*met(C)	*met(C)
!!section: Kyrie II
!!!OMD: Kyrie II
0C	0e	1g	1.cc
.	.	2g/	.
.	.	[2e/	4b\
.	.	.	4a/
=57	=57	=57	=57
2E\	1e	2e/]	2g/
2F\	.	4d/	2a/
.	.	4c/	.
[1G	[1d	2B/	2.b\
.	.	[2g/	.
.	.	.	4cc\
=58	=58	=58	=58
2G\]	1d]	4g/]	2dd\
.	.	4f/	.
4F\	.	2g/	2ee\
4E\	.	.	.
1D	1d	2a/	1ff
.	.	2b\	.
=59	=59	=59	=59
2r	0c	1cc	2ee\
2.c\	.	.	2.gg\
.	.	1r	.
4B\	.	.	4ff\
4A\	.	.	[2ee\
4G\	.	.	.
=60	=60	=60	=60
1A	2e\	1c	2ee\]
.	2f\	.	4dd\
.	.	.	4cc\
[1G	[1g	2d/	2.b\
.	.	[2e/	.
.	.	.	4g/
=61	=61	=61	=61
1G]	2g\]	2e/]	2b\
.	4f\	4d/	2cc\
.	4e\	4c/	.
1G	1d	2.B/	1dd
.	.	4A/	.
=62	=62	=62	=62
0r	2r	2.c/	2.g/
.	2.g\	.	.
.	.	4B/	4a/
.	.	2G/	4b\
.	4f\	.	4a/
.	4e\	2B/	[2dd\
.	4d\	.	.
=63	=63	=63	=63
1r	1e	1A	2dd\]
.	.	.	2cc#i\
2r	1d	2r	1dd
[2D\	.	[2a/	.
=64	=64	=64	=64
4D\]	0r	4a/]	0r
4E\	.	4g/	.
2F\	.	2a/	.
2G\	.	2b\	.
2A\	.	[2a/	.
=65	=65	=65	=65
1B	1r	2a/]	1dd
.	.	2g#i/	.
2.A\	2r	1a	2cc\
.	[2A/	.	[2a/
4G\	.	.	.
=66	=66	=66	=66
2F\	4A/]	1r	2a/]
.	4B\	.	.
2E\	2c\	.	2g/
4F\	2d\	2r	2f/
4E\	.	.	.
2C/	2e\	[2a/	2e/
=67	=67	=67	=67
1D	1f	2a/]	2r
.	.	2f/	2dd\
1C	2.e\	2.g/	2ee\
.	.	.	[2gg\
.	4d\	4f/	.
=68	=68	=68	=68
0r	2c\	4e/	4gg\]
.	.	4d/	4ff\
.	2B\	2.g/	2dd\
.	4c\	.	4ee\
.	4B\	4d/	4dd\
.	4A/	[2g/	4cc\
.	4G/	.	4b\
=69	=69	=69	=69
1c	1A	2g/]	1cc
.	.	2f#i/	.
2B\	1G	1g	2r
2G\	.	.	2gg\
=70	=70	=70	=70
1A	1r	1cc	4ff\
.	.	.	2ee\
.	.	.	4cc\
1G	1g	2b\	2dd\
.	.	2g/	[2ee\
=71	=71	=71	=71
1r	2f\	1a	2ee\]
.	2d\	.	1dd
2r	1e	1g	.
2c\	.	.	2cc\
=72	=72	=72	=72
2B\	1d	2r	2dd\
2G\	.	1g	2b\
1A	1r	.	2cc\
.	.	2f/	2a/
=73	=73	=73	=73
1G	2r	2g/	1b
.	2g\	2e/	.
1r	2f\	2f/	2r
.	2d\	[2a/	2dd\
=74	=74	=74	=74
1r	1e	2a/]	2cc\
.	.	2g/	2ee\
2r	[1d	2a/	2ff\
2G\	.	[2b\	[2gg\
=75	=75	=75	=75
2.G\	1d]	2b\]	2gg\]
.	.	4a/	4ff\
4A\	.	4g/	4ee\
4B\	1r	2g/	4dd\
4c\	.	.	4cc\
[2d\	.	2f/	[2ff\
=76	=76	=76	=76
2d\]	2r	4d/	2ff\]
.	.	4e/	.
4c\	2c\	4f/	4ee\
4B\	.	4g/	4dd\
1A	2.c\	2a/	4cc\
.	.	.	4b\
.	.	2f/	2cc\
.	4d\	.	.
=77	=77	=77	=77
1G	4e\	2g/	2b\
.	4f\	.	.
.	2g\	1b	2.ee\
2E\	2g\	.	.
.	.	.	4dd\
2F\	4f\	4a/	[2cc\
.	4e\	4g/	.
=78	=78	=78	=78
1G	1d	2.g/	2cc\]
.	.	.	2b\
.	.	8f/L	.
.	.	8g/J	.
[1Cl	[1cl	2a/	[1ccl
.	.	2g/	.
=79	=79	=79	=79
0C_	0c_	0e	0cc_
=80	=80	=80	=80
0C]	0c]	0el	0cc]
==	==	==	==
*-	*-	*-	*-
!!!RDF**kern: l=long note in original notation
!!!RDF**kern: i=editorial accidental
!!!ENC:	Chris Gage 05-14-2013
!!!END:	2013/07/24/
!!!EED:	Jesse Rodin
!!!EEV:	2013/08/05/
!!!ONB:	Translated from MusicXML and edited on 2013/08/05/ by Craig Sapp
!!muse2ps: T^@{OPR}^u^@{ONM}{. }@{OTL}^C^@{COM}^i2I150v85,85,85,150Q16
